!!!COM: Claude Debussy
!!!CNT: Francais
!!!TXO: Francais
!!!OPR: Cinq Poe2mes de Baudelaire
!!!ONM: No. 5
!!!OTL: La Mort des Amants
!!!LYR: Charles Baudelaire
!!!ENC: Jacob Pegg
!!!YOR: Claude Debussy: Songs 1880-1904, Edited by Rita Benton
!!!YOR: New York: Dover publications, inc., 1981
!!!YOR: ISBN 0-486-24131-9
!!!ODT: 1887/
!!NB: Vocal melody and text only encoded.
!!NB: First instance of melodic material only encoded.
**kern	**silbe
*clef G2	*
*k[b-e-a-d-g-c-]	*
*M3/4	*
*MM[andante]	*
!! created: 6/30/03 23:24
!! last edited: 7/10/03 14:17
!! total edit time: about 69 min.
=4	=4
2r	.
{8d-	{Nous
8e-	au-
=5	=5
8g-	-rons
8a-	des
8cc-	lits
8b-	pleins
(12a-	d'o-
12b-	-deurs
12g-)	le/-
=6	=6
[4f	-ge\-
12f]}	-res,}
12r	.
{12f	{Des
(12en	di-
12c#	-vans
12en)	pro-
=7	=7
4f	-fonds
8cn	com-
8cn	-me
8b-	des
8b-	tom-
=8	=8
2B-}	-beaux,}
4r	.
=9	=9
4r	.
{8a-	{Et
8b-	d'e/-
8bn	-tran-
8ccn	-ges
=10	=10
8ff	fleurs
8ee-	sur
(12dn	des
12d-	e/-
12b-)	-ta-
8a-	-ge\-
8g-}	-res,}
=11	=11
8r	.
{8e--	{E-
(12f-	-clo-
12e--	-ses
12f-)	pour
(12g-	nous
12a-	sous
12b-)	des
=12	=12
8bn	cieux
8ccn	plus
4f}	beaux.}
4r	.
=13	=13
8.r	.
{16e-	{U-
(12cc-	-sant
12b-	a\
12a-)	l'en-
(12ee-	-vi
12cc-	leurs
12a-)	cha-
=14	=14
16b-	-leurs
16d-	der-
[8dn	-nie\-
16dn]	|
16dn}	-res,}
{16e-	{Nos
16e-	deux
16g-	coeurs
16g-	se-
16a-	-ront
16g-	deux
=15	=15
(24cc-	vas-
24dd-	-tes
24ee-)	flam-
[8ee-	-beaux,
8ee-]}	|}
{8cc-	{Qui
(12gg-	re/-
12ff	-fle/-
12ee-)	-chi-
=16	=16
8dd-	-ront
8b-	leurs
(12f	dou-
12e-	-bles
12d-)	lu-
8d-	-mi-
8B-}	-e\res}
=17	=17
{16d-	{Dans
16e-	nos
16f	deux
16a-	es-
8a-	-prits
8dd-	ces
(12ddn	mi-
12cc#	-roirs
12ddn)	ju-
=18	=18
2.ee-}	-meaux}
=19	=19
*k[f#c#g#d#]	*
8r	.
{8g#	{Un
4g#	soir
8g#	fait
8g#	de
=20	=20
4b	rose
8b	et
8b	de
8b	bleu
8b	mys-
=21	=21
[4b	-ti-
8b]}	-que,}
8r	.
{8b	{Nous
8gg#	e/-
=22	=22
8gg#	-chan-
8aa	-ge-
4cc#	-rons
8ddn	un
8dd#	e/-
=23	=23
(12dd#	-clair
12ff#	|
12ee)	u-
[4g#	-ni-
8g#]}	-que}
8r	.
=24	=24
4r	.
{8g#	{Comme
8a	un
8a#	long
8b	san-
=25	=25
4ddn	-glot
4cc#	tout
4b	char-
=26	=26
2ff#	-ge/
4cc#	d'a-
=27	=27
2ccn}	-dieu}
4r	.
!! voice tacit 5 mm. 
=33	=33
*k[]	*
2r	.
{8g	{Et
8g	plus
=34	=34
8.g	tard
16g	un
[4b-	an-
8b-]}	-ge,}
8r	.
=35	=35
8r	.
{4cc	{en-
8cc	-trou-
8dd	-vrant
8dd	les
=36	=36
4ee-	por-
8f#}	-tes,}
8r	.
8r	.
{8g#	{Vien-
=37	=37
2cc#	-dra
8g#	ra-
8a	-ni-
=38	=38
2cc}	-mer,}
{4dd	{fi-
=39	=39
2ee-	-de\le
8b	et
8cc	jo-
=40	=40
2ff#	-yeux,
4gg}	|}
=41	=41
*k[b-e-a-d-g-c-]	*
!! 8r	.
{4aa-	{Les
4ee-	|
8ff-	mi-
8ffn	|
=42	=42
8ff	-roirs
8gg-	ter-
4b-}	-nis}
{8cc-	{et
8ccn	les
=43	=43
12ccn	flam-
12ee-	|
12dd-	-mes
4f	mor-
8e-	|
8d-	|
=44	=44
[2.dd-	-tes
=45	=45
4dd-]}	|}
4r	.
4r	.
*-	*-
